src/Pure-Dark/16/symbolic/status/auth-sim-missing-symbolic.svg

<?xml version="1.0" encoding="UTF-8" standalone="no"?>
<svg
   width="16"
   height="16"
   version="1.1"
   id="svg2"
   sodipodi:docname="auth-sim-missing-symbolic.svg"
   inkscape:version="1.4.2 (ebf0e940d0, 2025-05-08)"
   xmlns:inkscape="http://www.inkscape.org/namespaces/inkscape"
   xmlns:sodipodi="http://sodipodi.sourceforge.net/DTD/sodipodi-0.dtd"
   xmlns="http://www.w3.org/2000/svg"
   xmlns:svg="http://www.w3.org/2000/svg">
  <defs
     id="defs2">
    <style
       id="current-color-scheme"
       type="text/css">
        .ColorScheme-Text { color:#f2f2f2; }
        .ColorScheme-NeutralText { color:#f67400; }
        .ColorScheme-PositiveText { color:#37c837; }
        .ColorScheme-NegativeText { color:#f44336; }
     </style>
  </defs>
  <sodipodi:namedview
     id="namedview2"
     pagecolor="#ffffff"
     bordercolor="#000000"
     borderopacity="0.25"
     inkscape:showpageshadow="2"
     inkscape:pageopacity="0.0"
     inkscape:pagecheckerboard="0"
     inkscape:deskcolor="#d1d1d1"
     inkscape:zoom="49.6875"
     inkscape:cx="8"
     inkscape:cy="8"
     inkscape:window-width="1920"
     inkscape:window-height="1010"
     inkscape:window-x="0"
     inkscape:window-y="0"
     inkscape:window-maximized="1"
     inkscape:current-layer="svg2" />
  <path
     id="path1"
     style="fill:currentColor"
     class="ColorScheme-Text"
     d="M 8.1503906 3.0058594 A 2.992 2.992 0 0 0 6.8515625 3.2285156 A 3.005 3.005 0 0 0 5 6 L 7 6 C 7 5.593 7.2401875 5.2321719 7.6171875 5.0761719 A 0.994 0.994 0 0 1 8.7070312 5.2929688 A 0.994 0.994 0 0 1 8.9238281 6.3828125 A 0.994 0.994 0 0 1 8 7 A 1 1 0 0 0 7 8 L 7 10 L 9 10 L 9 8.8203125 A 2.998 2.998 0 0 0 10.771484 7.1484375 A 3.006 3.006 0 0 0 10.121094 3.8789062 A 3.001 3.001 0 0 0 8.1523438 3.0058594 L 8.1503906 3.0058594 z M 8 11 A 1 1 0 0 0 7 12 A 1 1 0 0 0 8 13 A 1 1 0 0 0 9 12 A 1 1 0 0 0 8 11 z " />
  <path
     id="path2"
     class="ColorScheme-Text"
     d="M 6 1 L 2 5 L 2 13 C 2 14.108 2.892 15 4 15 L 12 15 C 13.108 15 14 14.108 14 13 L 14 3 C 14 1.892 13.108 1 12 1 L 6 1 z M 6.4140625 2 L 12 2 C 12.554 2 13 2.446 13 3 L 13 13 C 13 13.554 12.554 14 12 14 L 4 14 C 3.446 14 3 13.554 3 13 L 3 5.4140625 L 6.4140625 2 z M 4 7 L 4 10 L 6 10 L 6 7 L 4 7 z M 11.865234 7 C 11.596074 8.034 10.92439 8.917425 10 9.453125 L 10 10 L 12 10 L 12 7 L 11.865234 7 z M 4 11 L 4 13 L 6 13 L 6 11 L 4 11 z M 10 11 L 10 13 L 12 13 L 12 11 L 10 11 z "
     style="fill:currentColor;opacity:0.35" />
</svg>

<svg width="16" height="16" version="1.1" xmlns="http://www.w3.org/2000/svg">
 <path d="m8.152 3.006a2.992 2.992 0 0 0-1.3 0.223 3.005 3.005 0 0 0-1.852 2.771h2c0-0.407 0.24-0.768 0.617-0.924a0.994 0.994 0 0 1 1.09 0.217 0.994 0.994 0 0 1 0.216 1.09 0.994 0.994 0 0 1-0.923 0.617 1 1 0 0 0-1 1v2h2v-1.18a2.998 2.998 0 0 0 1.771-1.672 3.006 3.006 0 0 0-0.65-3.27 3.001 3.001 0 0 0-1.97-0.872zm-0.152 7.994a1 1 0 0 0-1 1 1 1 0 0 0 1 1 1 1 0 0 0 1-1 1 1 0 0 0-1-1z" color="#000000" fill="#f2f2f2" font-family="sans-serif" font-weight="400" overflow="visible" solid-color="#000000" style="font-feature-settings:normal;font-variant-alternates:normal;font-variant-caps:normal;font-variant-ligatures:normal;font-variant-numeric:normal;font-variant-position:normal;isolation:auto;mix-blend-mode:normal;shape-padding:0;text-decoration-color:#000000;text-decoration-line:none;text-decoration-style:solid;text-indent:0;text-orientation:mixed;text-transform:none;white-space:normal"/>
 <path class="ColorScheme-Text" d="m6 1-4 4v8c0 1.108 0.892 2 2 2h8c1.108 0 2-0.892 2-2v-10c0-1.108-0.892-2-2-2zm0.41406 1h5.5859c0.554 0 1 0.446 1 1v10c0 0.554-0.446 1-1 1h-8c-0.554 0-1-0.446-1-1v-7.5859zm-2.4141 5v3h2v-3zm7.8652 0c-0.26916 1.034-0.94081 1.9174-1.8652 2.4531v0.54688h2v-3zm-7.8652 4v2h2v-2zm6 0v2h2v-2z" color="#f2f2f2" fill="#f2f2f2" opacity=".35"/>
</svg>
